X:1
T:James Gibb editions
T:This sweet and merry month - Byrd
T:#
%%score [ 1 2 3 4 ]
L:1/8
Q:1/4=108
M:4/4
K:C
V:1 treble nm="Soprano" snm="S"
V:2 treble nm="Alto" snm="A"
V:3 treble-8 nm="Tenor" snm="T"
V:4 bass nm="Bass" snm="B"
V:1
"^This sweet and merry month""^William Byrd\n(1543-1623)" z8 | A4 G2 A2 | GFGF E2 D2 | E4 z4 | %4
w: |This sweet and|mer- ry, mer- ry month of|May,|
[M:4/4] z8 | A4 G2 c2 | BABA ^G (^F G2) | A4 z2 E2 | E8 | z2 E2 A4 | G4 z2 c2- | cA A3 F F2- | %12
w: |this sweet and|mer- ry, mer- ry month of *|May, of|May,|While na-|ture wan\-|* tons, wan- tons, wan-|
 FD (A3 B c2- | c2) B2 c4 | z8 | z8 | z2 G2 B3 A | (GABc de d2) | z2 G2 B3 A | (GABc de d2) | %20
w: * tons in * *|* her prime,|||And birds do|sing, * * * * * *|and birds do|sing, * * * * * *|
 z2 A2 D3 E | (^FG A2) (FG A2) | z2 d2 B3 G | c3 A d2 A2 | ^F2 D G2 E A2- | A (BcG AB A2) | B8 || %27
w: and beasts do|play, * * play, * *|and beasts do|play, do play, and|beasts do play, do play,|* do * * * * *|play.|
 z8 | (3B4 d4 B4 | (3c4 B4 c4 | (3:2:2A4 B2 (3:2:2A4 B2 | (3:2:2A4 c2 (3:2:2B4 c2 | %32
w: |For plea- sure,|for- plea- sure,|of the joy- ful|time, the joy- ful|
 (3:2:2B4 A2 (3:2:2^G4 A2 || ^G4 z2 =G2 | A2 B2 c4 | z4 z2 A2 | B2 c2 d2 A2 | B3 G G2 G2 | A6 A2 | %39
w: time, the joy- ful|time, I|choose the first,|I|choose the first for|ho- li- day, for|ho- li-|
 A4 z2 E2 | A2 G2 c4 | B2 A2 (GABG) | A4 z4 | z4 z2 B2 | c4 z2 A2 | c6 d2 | e4 d2 d2 | e6 c2 | %48
w: day, And|greet E- li-|za with a * * *|rhyme,|and|greet, and|greet E-|li- za, E-|li- za|
 B2 c2 d4 | G2 A2 B4 | z2 EF G2 G2 | G8 |:[M:3/2] z4 A8 | z4 c8 | B6 B2 A4 ||[M:4/4] A8 | z8 | %57
w: with a rhyme,|with a rhyme,|with a rhyme, a|rhyme.|O,|O|beau- te- ous|Queen,||
 z4 d4- | d4 B4- | B2 c2 A4 | B8 | z4 z2 A2 | c4 A4 | e8 | z4 B4 | c2 A2 B4 | z4 z2 B2 | %67
w: O|* beau\-|* te- ous|Queen|of|se- cond|Troy,|Take|well in worth,|take|
 c2 A2 B2 G2 | A2 F2 E4 | z2 B2 c2 A2 | B2 G2 A2 F2 | E4 z2 d2 | c2 A2 ^G2 G2 | A3 A A4 | %74
w: well in worth a|sim- ple toy,|take well in|worth a sim- ple|toy, a|sim- ple toy, a|sim- ple toy,|
 z2 A2 F2 D2 | ^C4 z2 e2 | d2 B2 A4 | z2 B2 G4 | E4 z2 e2 | c2 A2 z2 c2 | B2 G2 z2 d2 | c2 A2 E4 | %82
w: a sim- ple|toy, a|sim- ple toy,|a sim-|ple, a|sim- ple, a|sim- ple, a|sim- ple toy,|
 z2 e2 c2 (A2 | B2 c2) B4 | z4 G4 | E8- | E4 E4 | E8 :| %88
w: a sim- ple|* * toy,|a|sim\-|* ple|toy.|
V:2
{[^F,c]} E4 D2 E2 | DCDC B,2 A,2 | EDED ^C2 (D2- | D2 ^C2) D4 |[M:4/4] z4 z2 E2 | DCDC B,2 (C2 | %6
w: This sweet and|mer- ry, mer- ry month, and|mer- ry, mer- ry month of|* * May,|and|mer- ry, mer- ry month of|
 D4) B,4 | z4 z2 A,2 | ^G,^F,G,A, B,2 B,2 | A,2 C2 F4 | D2 G3 E E2- | EC C3 A, D2- | %12
w: * May,|and|mer- ry, mer- ry month of|May, While na-|ture wan- tons, wan\-|* tons, wan- tons in|
 D2 (A,2 D2 E2) | D4 C2 G2- | G^F (GA Bc B2) | c2 A4 c2 | G6 G2 | D4 z2 G,2 | (B,C D2) z2 G,2 | %19
w: * her * *|prime, And birds|* do sing, * * * *|and birds do|sing, do|sing, do|sing, * * do|
 (B,C D2) z2 A2 | D3 E (^F2 G2) | A2 (^FG A4) | D2 B,3 G, G2- | GE C2 z2 D2 | A,2 G, B,2 C A,2- | %25
w: sing, * * and|beasts do play, *|* play, * *|and beasts do play,|* do play, and|beasts do play, do play,|
 A,2 G,2 D3 C | B,8 || z8 | (3G4 ^F4 G4 | (3E4 G4 E4 | (3:2:2D4 D2 (3:2:2D4 D2 | %31
w: * do play, do|play.||For plea- sure,|for- plea- sure,|of the joy- ful|
 (3:2:2D4 E2 (3:2:2E4 E2 | (3:2:2E4 E2 (3:2:2E4 E2 || E4 z4 | z4 z2 E2 | F2 G2 A4 | G2 A3 ^F F2 | %37
w: time, the joy- ful|time, the joy- ful|time,|I|choose the first|for ho- li- day,|
 G3 G E4 | C2 (F3 E D2- | D2) ^C2 C3 C | D2 E2 E4 | z2 A,2 E2 D2 | F4 E2 E2- | E2 D2 E4- | %44
w: ho- li- day,|for ho\- * *|* li- day, for|ho- li- day,|And greet E-|li- za with|* a rhyme,|
 E2 A,2 C4 | A,2 A4 B2 | c4 B2 B2 | c4 G2 E2- | E2 E2 D4- | D4 z4 | B,2 C2 D3 F | E8 |: %52
w: * and greet,|and greet E-|li- za, E-|li- za with|* a rhyme,||with a rhyme, a|rhyme.|
[M:3/2] z4 F8 | z4 G8 | G6 G2 E4 ||[M:4/4] ^F8- | F8 | z4 D4- | D4 G4- | G2 A2 ^F4 | G8 | %61
w: O,|O|beau- te- ous|Queen,||O|* beau\-|* te- ous|Queen,|
 z2 E2 C4 | A,4 E4 | E2 E4 A2 | ^G8 | z4 E4 | C2 D2 B,4 | z8 | z4 z2 E2 | F2 D2 E2 C2 | %70
w: of se-|cond Troy,|of se- cond|Troy,|Take|well in worth,||take|well in worth a|
 D2 B,2 A,4 | z8 | z8 | z4 z2 F2 | E4 D4 | E4 z4 | z2 E2 C2 A,2 | ^G,4 z2 E2 | G2 A2 B4 | %79
w: sim- ple toy,|||a|sim- ple|toy,|a sim- ple|toy,~~ take|well in worth|
 A4 G2 E2 | G4 F2 D2 | E2 A,2 A,4 | z2 B,2 E3 F | G6 F2 | E2 D2 C2 B,2 | C3 B, A,4 | ^G,2 A,4 G,2 | %87
w: a sim- ple,|a sim- ple,|sim- ple toy,|take well in|worth a|sim- ple toy, a|sim- ple toy,|a sim- ple|
 A,8 :| %88
w: toy.|
V:3
 z8 | z8 | z8 | A4 BABA |[M:4/4][K:treble-8] Bc d4 (c2 | f4) e4 | z8 | A4 G2 c2 | BABA ^G (^F G2) | %9
w: |||And mer- ry, mer- ry|mer- ry month of|* May,||this sweet and|mer- ry, mer- ry month of *|
 A2 A4 d2- | d2 B2 c3 A | A3 F F3 D | D4 z4 | z2 d2 e3 d | (cde^f ga g2) | e2 f4 f2 | e2 e2 d4 | %17
w: May, While na\-|* ture wan- tons,|wan- tons in her|prime,|And birds do|sing, * * * * * *|and birds do|sing, do sing,|
 z2 G2 B3 A | (GABc de d2) | z2 G2 ^F4 | G2 d4 B2 | A4 A2 ^F2- | FD G3 E C2 | z2 A2 ^F3 D | %24
w: and birds do|sing, * * * * * *|and beasts|do play, do|play, and beasts|* do play, do play,|and beasts do|
 d3 G G2 E2 | ^F2 (G4 F2) | G8 || (3B4 d4 B4 | z8 | (3G4 G4 G4 | (3:2:2^F4 G2 (3:2:2F4 G2 | %31
w: play, do play, and|beasts do *|play.|For plea- sure,||for- plea- sure,|of the joy- ful|
 (3:2:2^F4 A2 (3:2:2^G4 A2 | (3:2:2^G4 c2 (3:2:2B4 c2 || B4 z2 c2 | c2 B2 A2 c2 | d2 e2 f2 f2 | %36
w: time, the joy- ful|time, the joy- ful|time, I|choose the first, I|choose the first, the|
 e2 A4 d2- | dB B2 B2 c2- | cA A2 d2 f2- | f2 e2 e4 | z2 E2 A4 | G2 c4 B2 | z2 A2 (c3 B) | %43
w: first for ho\-|* li- day, for ho\-|* li- day, for ho\-|* li- day,|And greet|E- li- za,|E- li\- *|
 A2 A2 (^GABG) | A4 z2 A2 | e4 c2 g2- | g2 c2 d2 g2- | g2 c2 e3 f | g4 z4 | B2 c2 d4- | d2 c4 B2 | %51
w: za with a * * *|rhyme, and|greet E- li\-|* za, E- li\-|* za with a|rhyme,|with a rhyme,|* with a|
 c8 |:[M:3/2][K:treble-8] z4 c8 | z4 e8 | d6 e2 ^c4 ||[M:4/4] d8 | z4 d4- | d4 B4- | B2 A2 G4 | %59
w: rhyme.|O,|O|beau- te- ous|Queen,|O|* beau\-|* te- ous|
 d8 | z4 z2 B2 | c4 A4 | e4 c4 | G4 c4 | B8 | z4 ^G4 | A2 B2 ^G4 | e2 f2 d2 e2 | c2 d2 B2 A2- | %69
w: Queen|of|se- cond|Troy, of|se- cond|Troy,|Take|well in worth,|take well in worth|a sim- ple toy,|
 A2 D2 A2 A2 | G4 z2 A2 | c2 A2 B2 G2 | A2 F2 E2 e2 | c4 A4 | A2 A2 D3 D | A4 z4 | z4 z2 c2 | %77
w: * a sim- ple|toy, take|well in worth a|sim- ple toy, a|sim- ple|toy, a sim- ple|toy,|take|
 e2 B2 B4 | z2 c2 B2 E2 | A4 z4 | z4 z2 D2 | A3 B c2 c2 | B4 A4 | G2 C2 E3 F | G8 | z2 e2 c2 A2 | %86
w: well in worth|a sim- ple|toy,|take|well in worth a|sim- ple|toy, take well in|worth|a sim- ple|
 B2 c2 B3 d | ^c8 :| %88
w: toy, a sim- ple|toy.|
V:4
 z8 | z8 | z8 | z2 A,2 G,F,G,F, |[M:4/4] E,2 D,2 A,4 | z4 E,4 | D,4 z2 E,2 | D,C,D,C, B,,2 A,,2 | %8
w: |||And mer- ry, mer- ry|month of May,|this|sweet and|mer- ry, mer- ry month of|
 E,8 | z4 D,4 | G,4 C,4 | C3 A, A,3 F, | F,3 D, (F,G,) (E,F,) | G,4 z4 | z4 z2 G,2 | %15
w: May,|While|na- ture|wan- tons, wan- tons,|wan- tons in * her *|prime,|And|
 A,3 G, (F,G,A,B, | CD C2) G,2 G,2- | G,2 G,2 G,4 | z4 G,4 | G,,3 A,, (B,,C, D,2) | %20
w: birds do sing, * * *|* * * and birds|* do sing,|and|beasts do play, * *|
 (B,,C, D,2) z2 G,2 | D,4 z2 D,2 | B,,3 G,, G,3 E, | C,3 F, D,4 | D,2 B,,2 G,, C,2 A,, | %25
w: play, * * and|beasts, and|beasts do play, do|play, do play,|and beasts do play, do|
 D,2 (E,2 D,4) | G,,8 || (3G,4 B,4 G,4 | z8 | (3C,4 E,4 C,4 | (3:2:2D,4 G,,2 (3:2:2D,4 G,,2 | %31
w: play, do *|play.|For plea- sure,||for- plea- sure,|of the joy- ful|
 (3:2:2D,4 A,,2 (3:2:2E,4 A,2 | (3:2:2E,4 A,,2 (3:2:2E,4 A,2 || E,4 z4 | z4 z2 A,2 | F,2 E,2 D,4 | %36
w: time, the joy- ful|time, the joy- ful|time,|I|choose the first|
 z4 D,4 | G,3 E, E,2 E,2 | F,3 D, D,2 D,2 | A,3 A,, A,,4 | z8 | z4 z2 G,,2 | D,4 z2 C,2 | F,4 E,4 | %44
w: for|ho- li- day, for|ho- li- day, for|ho- li- day,||And|greet E-|li- za,|
 z2 A,,2 A,4 | z2 A,,2 A,2 G,2 | C4 G,2 G,2 | C4 C,4 | E,4 ^F,4 | G,8 | G,,4 G,,4 | C,8 |: %52
w: and greet,|and greet E-|li- za, E-|li- za|with a|rhyme,|with a|rhyme.|
[M:3/2] z4 F,8 | z4 C,8 | G,6 E,2 A,4 ||[M:4/4] D,4 D,4- | D,4 B,,4- | B,,2 A,,2 G,,4 | G,8 | %59
w: O,|O|beau- te- ous|Queen, O|* beau\-|* te- ous|Queen|
 z4 z2 D,2 | G,4 E,4 | A,8 | z4 z2 A,,2 | C,4 A,,4 | E,8 | z4 E,4 | F,2 D,2 E,4 | z4 z2 E,2 | %68
w: of|se- cond|Troy,|of|se- cond|Troy,|Take|well in worth,|take|
 F,2 D,2 E,2 C,2 | D,2 B,,2 A,,4 | z2 E,2 F,2 D,2 | E,2 C,2 D,2 B,,2 | A,,4 z4 | z2 A,2 F,2 D,2 | %74
w: well in worth a|sim- ple toy,|take well in|worth a sim- ple|toy,|a sim- ple|
 ^C,4 z4 | z2 A,2 C2 A,2 | B,2 G,2 A,2 F,2 | E,4 z2 E,2 | C,2 A,,2 ^G,,4 | z2 F,2 E,2 C,2 | %80
w: toy,|take well in|worth a sim- ple|toy, a|sim- ple toy,|a sim- ple,|
 z2 E,2 D,2 B,,2 | z2 D,2 C,2 A,,2 | ^G,,4 z2 A,,2 | E,3 F, G,4- | G,2 F,2 E,2 D,2 | %85
w: a sim- ple,|a sim- ple|toy, take|well in worth|* a sim- ple|
 C,2 A,,2 (A,,B,,C,A,, | E,6) E,2 | A,,8 :| %88
w: toy, a sim\- * * *|* ple|toy.|

